dist/img/svg/steam-icon.svg

<svg width="31" height="31" viewBox="0 0 31 31" fill="none" xmlns="http://www.w3.org/2000/svg">
<path fill-rule="evenodd" clip-rule="evenodd" d="M15.7746 30.5089C24.0936 30.5089 30.8375 23.7932 30.8375 15.5089C30.8375 7.22461 24.0936 0.508881 15.7746 0.508881C7.45558 0.508881 0.71167 7.22461 0.71167 15.5089C0.71167 17.0369 0.941106 18.5116 1.36754 19.9005C1.47636 19.9201 1.6523 19.9646 1.90866 20.0395L1.50834 13.7669C1.50834 13.6519 1.7031 13.5966 1.88153 13.546C1.97946 13.5182 2.07247 13.4918 2.12567 13.4577C2.27094 13.3662 5.26258 14.454 5.42239 14.5262L9.248 16.2495C10.2359 15.6285 11.4175 15.3782 12.5797 15.5467L16.0566 11.3252C16.1002 7.95572 18.8604 5.24088 22.2551 5.23606C25.4269 5.26976 28.0564 7.67653 28.3567 10.8101C28.6763 14.1989 26.1775 17.2025 22.7684 17.525L16.9767 21.6406C16.6232 23.4457 15.3254 24.9235 13.5724 25.5107C10.8848 26.4157 7.96472 24.9812 7.05917 22.3049L5.04467 21.6406C4.89531 21.5934 2.15386 20.4576 1.41129 20.0406C3.34051 26.1099 9.04168 30.5089 15.7746 30.5089ZM25.3546 11.3973C25.3546 13.0987 23.967 14.478 22.2553 14.478C20.5436 14.478 19.156 13.0987 19.156 11.3973C19.156 9.69591 20.5436 8.31664 22.2553 8.31664C23.967 8.31664 25.3546 9.69591 25.3546 11.3973ZM24.3236 11.3973C24.3236 12.5325 23.3978 13.4527 22.2557 13.4527C21.1137 13.4527 20.1879 12.5325 20.1879 11.3973C20.1879 10.2622 21.1137 9.34195 22.2557 9.34195C23.3978 9.34195 24.3236 10.2622 24.3236 11.3973ZM10.5804 23.412C10.9969 23.6142 11.4569 23.7201 11.9218 23.7201C12.2753 23.7201 12.6191 23.6623 12.9581 23.5516C13.7377 23.282 14.3721 22.7189 14.7304 21.9824C15.4761 20.4469 14.8272 18.6081 13.2873 17.8668C13.0259 17.7417 12.7208 17.8476 12.5949 18.1027C12.469 18.3626 12.5755 18.6659 12.8322 18.791C12.8661 18.8055 12.9 18.8199 12.9338 18.8392C13.9508 19.359 14.343 20.5961 13.82 21.6069C13.297 22.6178 12.0477 23.0077 11.0356 22.4878C10.7741 22.3627 10.469 22.4686 10.3431 22.7237C10.2172 22.9836 10.3238 23.2869 10.5804 23.412Z" fill="#FFB548"/>
</svg>

<svg width="31" height="31" fill="none" xmlns="http://www.w3.org/2000/svg"><path fill-rule="evenodd" clip-rule="evenodd" d="M15.775 30.509c8.319 0 15.062-6.716 15.062-15 0-8.284-6.743-15-15.062-15-8.32 0-15.063 6.716-15.063 15 0 1.528.23 3.003.656 4.392.108.02.284.064.54.139l-.4-6.273c0-.115.195-.17.374-.221.097-.028.19-.054.244-.088.145-.092 3.137.996 3.296 1.068l3.826 1.724a4.932 4.932 0 013.332-.703l3.477-4.222c.043-3.37 2.803-6.084 6.198-6.089 3.172.034 5.801 2.44 6.102 5.574.32 3.389-2.18 6.393-5.589 6.715l-5.791 4.116a5.121 5.121 0 01-3.405 3.87c-2.687.905-5.607-.53-6.513-3.206l-2.014-.664c-.15-.048-2.891-1.183-3.634-1.6a15.063 15.063 0 0014.364 10.468zm9.58-19.112a3.09 3.09 0 01-3.1 3.081 3.09 3.09 0 01-3.099-3.08 3.09 3.09 0 013.1-3.081 3.09 3.09 0 013.099 3.08zm-1.031 0a2.062 2.062 0 01-2.068 2.056 2.062 2.062 0 01-2.068-2.056c0-1.135.926-2.055 2.068-2.055s2.068.92 2.068 2.055zM10.58 23.412c.417.202.877.308 1.342.308.353 0 .697-.058 1.036-.168a3.074 3.074 0 00.33-5.685.518.518 0 00-.693.236.512.512 0 00.237.688 2.045 2.045 0 01.988 2.816 2.07 2.07 0 01-2.784.88.518.518 0 00-.693.237.512.512 0 00.237.688z" fill="#FFB548"/></svg>
